X: 13489
T: Flowers In Bloom, The
R: jig
M: 6/8
K: Gmajor
|:D|"G"GDB, G,B,D|GBA GFE|"D"FDD DFA|ced cBA|
"G"GDB, G,B,D|GBA GFE|"D"FDD DcB|AGF "G"G2:|
|:d|"G"gdg bag|"D"fdf agf|"C"ece gfe|"G"dBA GAB|
"C"ced cBA|"G"Bdc BAG|"D"FDD DFA|def "G"g2:|

